Sources/FrostedUI/Resources/Icons.xcassets/sadFaceFilled24.imageset/sad-face-filled-24.svg

<svg width="24" height="24" viewBox="0 0 24 24" fill="none" xmlns="http://www.w3.org/2000/svg" data-fui-icon="true">
  <g clip-path="url(#clip0_6288_58)">
    <path
      d="M12 0C18.4203 1.41588e-05 24 5.5797 24 12C24 18.4203 18.4203 24 12 24C5.5797 24 3.31525e-06 18.4203 0 12C3.52246e-06 5.5797 5.5797 1.4366e-05 12 0ZM12 15.25C10.294 15.25 9.09445 15.8955 8.32422 16.5557C7.94319 16.8823 7.66947 17.2095 7.48926 17.459C7.39903 17.5839 7.33198 17.6909 7.28516 17.7695C7.26171 17.8089 7.24283 17.8417 7.22949 17.8662C7.22287 17.8784 7.21711 17.8884 7.21289 17.8965C7.2108 17.9005 7.20952 17.9043 7.20801 17.9072L7.20508 17.9131L7.2041 17.9141C7.2043 17.9146 7.21879 17.9218 7.76953 18.1973L7.2041 17.915C7.01916 18.2854 7.16969 18.7357 7.54004 18.9209C7.88723 19.0942 8.30436 18.9732 8.50781 18.6523L8.54297 18.5908L8.54395 18.5898L8.54492 18.5879V18.585L8.54688 18.583C8.55149 18.5745 8.56026 18.5589 8.57324 18.5371C8.59964 18.4928 8.64408 18.4237 8.70605 18.3379C8.83051 18.1656 9.02567 17.9301 9.30078 17.6943C9.84306 17.2296 10.7061 16.75 12 16.75C13.2939 16.75 14.1569 17.2296 14.6992 17.6943C14.9743 17.9301 15.1695 18.1656 15.2939 18.3379C15.3559 18.4237 15.4004 18.4928 15.4268 18.5371C15.4397 18.5589 15.4485 18.5745 15.4531 18.583L15.4541 18.585V18.5859L15.4561 18.5898L15.457 18.5908L15.4922 18.6523C15.6956 18.9732 16.1128 19.0942 16.46 18.9209C16.8303 18.7357 16.9808 18.2854 16.7959 17.915L16.2305 18.1973C16.7958 17.9146 16.7951 17.9134 16.7949 17.9131L16.792 17.9072C16.7905 17.9043 16.7892 17.9005 16.7871 17.8965C16.7829 17.8884 16.7771 17.8784 16.7705 17.8662C16.7572 17.8417 16.7383 17.8089 16.7148 17.7695C16.668 17.6909 16.601 17.5839 16.5107 17.459C16.3305 17.2095 16.0568 16.8823 15.6758 16.5557C14.9056 15.8955 13.706 15.25 12 15.25ZM7.2002 10.2998C6.53745 10.2998 6 10.8373 6 11.5C6 12.1627 6.53745 12.7002 7.2002 12.7002C7.86285 12.7001 8.40039 12.1627 8.40039 11.5C8.40039 10.8373 7.86285 10.2999 7.2002 10.2998ZM16.7998 10.2998C16.1372 10.2999 15.5996 10.8373 15.5996 11.5C15.5996 12.1627 16.1372 12.7001 16.7998 12.7002C17.4625 12.7002 18 12.1627 18 11.5C18 10.8373 17.4625 10.2998 16.7998 10.2998Z"
      fill="currentColor"
    />
  </g>
  <defs>
    <clipPath id="clip0_6288_58"><path fill="currentColor" d="M0 0H24V24H0z" /></clipPath>
  </defs>
</svg>

<svg xmlns="http://www.w3.org/2000/svg" width="24" height="24" fill="none" data-fui-icon="true" viewBox="0 0 24 24"><g clip-path="url(#a)"><path fill="currentColor" d="M12 0c6.42 0 12 5.58 12 12s-5.58 12-12 12S0 18.42 0 12 5.58 0 12 0m0 15.25c-1.706 0-2.906.646-3.676 1.306a5.3 5.3 0 0 0-.835.903 4 4 0 0 0-.26.407l-.016.03-.005.011-.003.006v.001l.565.283-.566-.282a.75.75 0 0 0 1.304.737l.035-.061.001-.001v-.005l.003-.002.026-.046q.04-.068.133-.2c.125-.171.32-.407.595-.643.542-.464 1.405-.944 2.699-.944s2.157.48 2.7.944a3.7 3.7 0 0 1 .727.843l.026.046.001.002.002.005h.001l.035.062a.75.75 0 0 0 1.304-.737l-.566.282c.566-.282.565-.284.565-.284l-.003-.006-.005-.01-.017-.03-.055-.098a4 4 0 0 0-.204-.31 5.3 5.3 0 0 0-.835-.903c-.77-.66-1.97-1.306-3.676-1.306M7.2 10.3a1.2 1.2 0 1 0 0 2.4 1.2 1.2 0 0 0 0-2.4m9.6 0a1.2 1.2 0 1 0 0 2.4 1.2 1.2 0 0 0 0-2.4"/></g><defs><clipPath id="a"><path fill="currentColor" d="M0 0h24v24H0z"/></clipPath></defs></svg>
